svgs/city-15.svg

<svg version="1.1" xmlns="http://www.w3.org/2000/svg" xmlns:xlink="http://www.w3.org/1999/xlink"
	 width="15px" height="15px" viewBox="0 0 15 15">
<path d="M13.6368,3.9994h-1.6387V1.3608C11.99804,1.16148,11.83642,0.99994,11.6371,1l0,0h-0.278
	c-0.19932,0-0.3609,0.16158-0.3609,0.3609l0,0v2.6385H9.36c-0.19932,0-0.3609,0.16158-0.3609,0.3609l0,0l0,0v5.6381h-3.637
	c-0.20042,0-0.3629,0.16248-0.3629,0.3629v3.2745c0.00055,0.20003,0.16287,0.3619,0.3629,0.3619h8.2747
	c0.19932,0,0.3609-0.16158,0.3609-0.3609l0,0V4.36c0-0.19932-0.16158-0.3609-0.3609-0.3609l0,0L13.6368,3.9994z M6.9989,11.9981h-1
	v-1h1V11.9981z M8.9989,11.9981h-1v-1h1V11.9981z M10.9989,11.9981h-1v-1h1V11.9981z M10.9989,9.9981h-1v-1h1V9.9981z
	 M10.9989,7.9981h-1v-1h1V7.9981z M10.9989,5.9981h-1v-1h1V5.9981z M12.9989,11.9971h-1v-1h1V11.9971z M12.9989,9.9971h-1v-1h1
	V9.9971z M12.9989,7.9971h-1v-1h1V7.9971z M12.9989,5.9971h-1v-1h1V5.9971z M7.9987,1.3608C7.99864,1.16152,7.83708,1,7.6378,1H5.36
	C5.16068,1,4.9991,1.16158,4.9991,1.3609l0,0V3H3.36C3.16138,3.00049,3.00049,3.16138,3,3.36l0,0v0.6394H1.3608
	C1.16164,3.99945,1.00017,4.16084,1,4.36l0,0v9.2765c0,0.19932,0.16158,0.3609,0.3609,0.3609h2.6385V8.9986h3.9993V1.3608z
	 M3,11.9981H2v-1h1V11.9981z M3,9.9981H2v-1h1V9.9981z M3,7.9981H2v-1h1V7.9981z M3,5.9981H2v-1h1V5.9981z M5,7.9981H4v-1h1V7.9981z
	 M5,5.9981H4v-1h1V5.9981z M7,7.9981H6v-1h1V7.9981z M7,5.9981H6v-1h1V5.9981z M7,3.9981H6V3h1v1V3.9981z"/>
</svg>

<svg xmlns="http://www.w3.org/2000/svg" viewBox="0 0 27 27" height="27" width="27"><title>city-15.svg</title><rect fill="none" x="0" y="0" width="27" height="27"></rect><rect x="0" y="0" width="27" height="27" rx="13.5" ry="13.5" fill="rgba(17,34,51,0.88)"></rect><path fill="#fff" transform="translate(6 6)" d="M13.639,4H12V1.361A.361.361,0,0,0,11.639,1h-.278A.361.361,0,0,0,11,1.361h0V4H9.361A.361.361,0,0,0,9,4.361H9V10H5.363A.363.363,0,0,0,5,10.363v3.275A.363.363,0,0,0,5.363,14h8.276A.361.361,0,0,0,14,13.639h0V4.361A.361.361,0,0,0,13.639,4ZM7,12H6V11H7Zm2,0H8V11H9Zm2,0H10V11h1Zm0-2H10V9h1Zm0-2H10V7h1Zm0-2H10V5h1Zm2,6H12V11h1Zm0-2H12V9h1Zm0-2H12V7h1Zm0-2H12V5h1ZM8,1.361A.361.361,0,0,0,7.639,1H5.361A.361.361,0,0,0,5,1.361H5V3H3.361A.361.361,0,0,0,3,3.361H3V4H1.361A.361.361,0,0,0,1,4.361H1v9.278A.361.361,0,0,0,1.361,14H4V9H8ZM3,12H2V11H3Zm0-2H2V9H3ZM3,8H2V7H3ZM3,6H2V5H3ZM5,8H4V7H5ZM5,6H4V5H5ZM7,8H6V7H7ZM7,6H6V5H7ZM7,4H6V3H7Z"></path></svg>
